X:1
T: Miss Jeanny Ross's Reel
C:William Marshall
R:Reel
Q: 232
K:C
M:4/4
L:1/8
|:f|ed cB c2 GF|EG ce fd df|ed cB c2 GF|Ec DF EC Cf|
ed cB c2 GF|EG ce fd df|ed cB c2 GF|Ec DF EC Cf|
ef ge c'e ge|af ge fd df|ef ge c'e ge|fa gf ec cf|
ef ge c'e ge|af ge fd df|ec fd ge af|eg df ec c:|
